X:47
%
T:Fish You Said
T:Fishuthes
R: Jig
C:copyright (c) 2002 R. S. Doiel, all rights reserved
L:1/8
M:6/8
K:G treble
Q:1/4=70
dBB dBB | dBc BGG | BGG EGF | A3 dBB |
dBB dBc | BGG BGG | c3 ABA | E3 dBB |
dBB dBc | BGG BGG | GED AFE | B3 GED |
AFE AdB | cBA EGG | FAA GBB | FAA G3 ||
e2A GAB | A3 gfe | G3 D3 | e2A gfe |
dfe dB2 | edB c2e | A3 GAB | A3 gfe | 
G A2 GBd | =FA=c D^FA | ceg d3 | BGG G3 |]


